assets/img/icons/trashcan-delete-icon.svg

<svg viewBox="0 0 17 18" fill="none" xmlns="http://www.w3.org/2000/svg">
    <path d="M3.14453 18C2.59453 18 2.1237 17.8042 1.73203 17.4125C1.34036 17.0208 1.14453 16.55 1.14453 16V3C0.861198 3 0.623698 2.90417 0.432031 2.7125C0.240365 2.52083 0.144531 2.28333 0.144531 2C0.144531 1.71667 0.240365 1.47917 0.432031 1.2875C0.623698 1.09583 0.861198 1 1.14453 1H5.14453C5.14453 0.716667 5.24036 0.479167 5.43203 0.2875C5.6237 0.0958333 5.8612 0 6.14453 0H10.1445C10.4279 0 10.6654 0.0958333 10.857 0.2875C11.0487 0.479167 11.1445 0.716667 11.1445 1H15.1445C15.4279 1 15.6654 1.09583 15.857 1.2875C16.0487 1.47917 16.1445 1.71667 16.1445 2C16.1445 2.28333 16.0487 2.52083 15.857 2.7125C15.6654 2.90417 15.4279 3 15.1445 3V16C15.1445 16.55 14.9487 17.0208 14.557 17.4125C14.1654 17.8042 13.6945 18 13.1445 18H3.14453ZM3.14453 3V16H13.1445V3H3.14453ZM5.14453 13C5.14453 13.2833 5.24036 13.5208 5.43203 13.7125C5.6237 13.9042 5.8612 14 6.14453 14C6.42786 14 6.66536 13.9042 6.85703 13.7125C7.0487 13.5208 7.14453 13.2833 7.14453 13V6C7.14453 5.71667 7.0487 5.47917 6.85703 5.2875C6.66536 5.09583 6.42786 5 6.14453 5C5.8612 5 5.6237 5.09583 5.43203 5.2875C5.24036 5.47917 5.14453 5.71667 5.14453 6V13ZM9.14453 13C9.14453 13.2833 9.24037 13.5208 9.43203 13.7125C9.6237 13.9042 9.8612 14 10.1445 14C10.4279 14 10.6654 13.9042 10.857 13.7125C11.0487 13.5208 11.1445 13.2833 11.1445 13V6C11.1445 5.71667 11.0487 5.47917 10.857 5.2875C10.6654 5.09583 10.4279 5 10.1445 5C9.8612 5 9.6237 5.09583 9.43203 5.2875C9.24037 5.47917 9.14453 5.71667 9.14453 6V13Z" fill="#2A3647"/>
</svg>

<symbol id="trashcan-delete-icon" viewBox="0 0 17 18" xmlns="http://www.w3.org/2000/svg">
    <path d="M3.145 18c-.55 0-1.021-.196-1.413-.587A1.926 1.926 0 0 1 1.145 16V3a.968.968 0 0 1-.713-.288A.968.968 0 0 1 .145 2c0-.283.095-.52.287-.712A.968.968 0 0 1 1.145 1h4c0-.283.095-.52.287-.713A.968.968 0 0 1 6.145 0h4c.283 0 .52.096.712.287.192.192.288.43.288.713h4c.283 0 .52.096.712.288.192.191.288.429.288.712s-.096.52-.288.712a.967.967 0 0 1-.712.288v13c0 .55-.196 1.02-.588 1.413a1.926 1.926 0 0 1-1.412.587h-10Zm0-15v13h10V3h-10Zm2 10c0 .283.095.52.287.713.192.191.43.287.713.287s.52-.096.712-.287A.968.968 0 0 0 7.145 13V6a.968.968 0 0 0-.288-.713A.968.968 0 0 0 6.145 5a.968.968 0 0 0-.713.287.968.968 0 0 0-.287.713v7Zm4 0c0 .283.095.52.287.713.192.191.43.287.713.287s.52-.096.712-.287a.968.968 0 0 0 .288-.713V6a.967.967 0 0 0-.288-.713.967.967 0 0 0-.712-.287.968.968 0 0 0-.713.287.968.968 0 0 0-.287.713v7Z"/>
</symbol>
